X:1
T:[ID 9-29]
T:[ID 9-29]
T:Bezeichnung standardisiert: March March
T:Urheber unbekannt Datum in der hier transkribierten schriftlichen Quelle: 1796
C:Urheber unbekannt
C:Datum in der hier transkribierten schriftlichen Quelle: 1796
L:1/8
M:4/4
K:A
V:1 treble 
V:1
 (3EFG | A4 c4 | BG E2 z2 (3FGA | B4 d4 | cB A2 z4 | e3 c A2 A2 | f3 e d2 c2 | B2 A2 G2 A2 | B6 :: %9
 (3FGA | B3 c B2 e2 | e2 ^d2 d4 | B3 c B2 g2 | g2 f2 f4 | a3 f g2 e2 | ^defd e4 | a3 f g2 e2 | %17
 ^defd e4 | e3 c A2 A2 | f3 e d2 c2 | B2 A2 GABG | A6 :| %22

